icon-themes/breeze_svg/cmd/lc_objectalignleft.svg

<svg viewBox="0 0 24 24" xmlns="http://www.w3.org/2000/svg"><path d="m4 4v16h1v-16zm3 0v6h13v-6zm1 1h11v4h-11zm-1 9v6h6v-6zm1 1h4v4h-4z" fill="#4d4d4d"/></svg>

<svg xmlns="http://www.w3.org/2000/svg" viewBox="0 0 24 24">
 <path 
     style="fill:#4d4d4d" 
     d="M 4 4 L 4 20 L 5 20 L 5 4 L 4 4 z M 7 4 L 7 10 L 20 10 L 20 4 L 7 4 z M 8 5 L 19 5 L 19 9 L 8 9 L 8 5 z M 7 14 L 7 20 L 13 20 L 13 14 L 7 14 z M 8 15 L 12 15 L 12 19 L 8 19 L 8 15 z "
     />
 </svg>
